packages/icons/src/save-cache-harness-ci-step-inverse.svg

<svg fill="none" viewBox="0 0 40 40" xmlns="http://www.w3.org/2000/svg"><path clip-rule="evenodd" d="m20.4015 5.19753c-.0946-.12441-.2413-.19743-.397-.19753s-.3025.07273-.3972.19702l-3.1299 4.1072c-.1681.22054-.1266.53639.0926.70548.2192.1691.5331.1274.7012-.09317l2.2329-2.93011v9.22578c0 .2779.2239.5032.5001.5032s.5001-.2253.5001-.5032v-9.22263l2.2241 2.92645c.1678.22078.4817.26288.7011.09408.2194-.16881.2613-.48461.0935-.70536zm-4.0215 8.90637c.2738-.0365.4664-.2894.4301-.5649-.0362-.2755-.2876-.4692-.5614-.4328-2.0232.2695-3.7857.7541-5.0581 1.3947-.6357.3201-1.1718.6904-1.55481 1.1123-.3857.4248-.63579.9255-.63579 1.4853v13.6686c0 .7229.41373 1.3417 1.0048 1.8381.5938.4987 1.4232.9252 2.4042 1.2737 1.9664.6985 4.6503 1.1211 7.591 1.1211 2.9408 0 5.6246-.4226 7.591-1.1211.981-.3485 1.8104-.775 2.4042-1.2737.5911-.4964 1.0048-1.1152 1.0048-1.8381v-13.6686c-.0425-1.1306-.9424-1.9591-2.1421-2.573-1.2446-.6368-2.9695-1.1217-4.9527-1.3983-.2736-.0382-.5262.154-.5641.4293s.1531.5293.4267.5675c1.9182.2676 3.5249.7297 4.6367 1.2985 1.1566.5919 1.5953 1.1979 1.5953 1.676 0 .307-.1739.6694-.6455 1.0655-.4688.3937-1.1771.7708-2.0963 1.0973-1.8337.6514-4.3998 1.0638-7.258 1.0638s-5.4242-.4124-7.258-1.0638c-.9192-.3265-1.6275-.7036-2.0963-1.0973-.4716-.3961-.6455-.7585-.6455-1.0655 0-.2398.1041-.5093.3741-.8066.2726-.3002.6937-.6039 1.2639-.891 1.1396-.5738 2.7841-1.0363 4.7418-1.297zm-6.3798 9.7215v-4.8927l.0046.0039c.5938.4987 1.4232.9252 2.4042 1.2737 1.9664.6985 4.6503 1.1211 7.591 1.1211 2.9408 0 5.6246-.4226 7.591-1.1211.981-.3485 1.8104-.775 2.4042-1.2737l.0046-.0039v4.8927c0 .307-.1739.6694-.6455 1.0655-.4688.3937-1.1771.7708-2.0963 1.0973-1.8337.6514-4.3998 1.0637-7.258 1.0637s-5.4242-.4123-7.258-1.0637c-.9192-.3265-1.6275-.7036-2.0963-1.0973-.4716-.3961-.6455-.7585-.6455-1.0655zm19.995 1.838.0046-.0038v5.1075c0 .307-.1739.6694-.6455 1.0655-.4688.3937-1.1771.7709-2.0963 1.0974-1.8337.6513-4.3998 1.0637-7.258 1.0637s-5.4242-.4124-7.258-1.0637c-.9192-.3265-1.6275-.7037-2.0963-1.0974-.4716-.3961-.6455-.7585-.6455-1.0655v-5.1075l.0046.0038c.5938.4988 1.4232.9253 2.4042 1.2738 1.9664.6985 4.6503 1.1211 7.591 1.1211 2.9408 0 5.6246-.4226 7.591-1.1211.981-.3485 1.8104-.775 2.4042-1.2738zm-17.4772-3.1999c0 .3458-.2786.6261-.6223.6261-.3436 0-.6222-.2803-.6222-.6261 0-.3457.2786-.626.6222-.626.3437 0 .6223.2803.6223.626zm0 6.9175c0 .3458-.2786.6261-.6223.6261-.3436 0-.6222-.2803-.6222-.6261 0-.3457.2786-.626.6222-.626.3437 0 .6223.2803.6223.626z" fill="#fff" fill-rule="evenodd"/></svg>

<svg viewBox="0 0 40 40" fill="none" xmlns="http://www.w3.org/2000/svg">
<path fill-rule="evenodd" clip-rule="evenodd" d="M20.4015 5.19753C20.3069 5.07312 20.1602 5.0001 20.0045 5C19.8488 4.9999 19.702 5.07273 19.6073 5.19702L16.4774 9.30422C16.3093 9.52476 16.3508 9.84061 16.57 10.0097C16.7892 10.1788 17.1031 10.1371 17.2712 9.91653L19.5041 6.98642V16.2122C19.5041 16.4901 19.728 16.7154 20.0042 16.7154C20.2804 16.7154 20.5043 16.4901 20.5043 16.2122V6.98957L22.7284 9.91602C22.8962 10.1368 23.2101 10.1789 23.4295 10.0101C23.6489 9.84129 23.6908 9.52549 23.523 9.30474L20.4015 5.19753ZM16.38 14.1039C16.6538 14.0674 16.8464 13.8145 16.8101 13.539C16.7739 13.2635 16.5225 13.0698 16.2487 13.1062C14.2255 13.3757 12.463 13.8603 11.1906 14.5009C10.5549 14.821 10.0188 15.1913 9.63579 15.6132C9.25009 16.038 9 16.5387 9 17.0985V30.7671C9 31.49 9.41373 32.1088 10.0048 32.6052C10.5986 33.1039 11.428 33.5304 12.409 33.8789C14.3754 34.5774 17.0593 35 20 35C22.9408 35 25.6246 34.5774 27.591 33.8789C28.572 33.5304 29.4014 33.1039 29.9952 32.6052C30.5863 32.1088 31 31.49 31 30.7671V17.0985C30.9575 15.9679 30.0576 15.1394 28.8579 14.5255C27.6133 13.8887 25.8884 13.4038 23.9052 13.1272C23.6316 13.089 23.379 13.2812 23.3411 13.5565C23.3032 13.8318 23.4942 14.0858 23.7678 14.124C25.686 14.3916 27.2927 14.8537 28.4045 15.4225C29.5611 16.0144 29.9998 16.6204 29.9998 17.0985C29.9998 17.4055 29.8259 17.7679 29.3543 18.164C28.8855 18.5577 28.1772 18.9348 27.258 19.2613C25.4243 19.9127 22.8582 20.3251 20 20.3251C17.1418 20.3251 14.5758 19.9127 12.742 19.2613C11.8228 18.9348 11.1145 18.5577 10.6457 18.164C10.1741 17.7679 10.0002 17.4055 10.0002 17.0985C10.0002 16.8587 10.1043 16.5892 10.3743 16.2919C10.6469 15.9917 11.068 15.688 11.6382 15.4009C12.7778 14.8271 14.4223 14.3646 16.38 14.1039ZM10.0002 23.8254V18.9327L10.0048 18.9366C10.5986 19.4353 11.428 19.8618 12.409 20.2103C14.3754 20.9088 17.0593 21.3314 20 21.3314C22.9408 21.3314 25.6246 20.9088 27.591 20.2103C28.572 19.8618 29.4014 19.4353 29.9952 18.9366L29.9998 18.9327V23.8254C29.9998 24.1324 29.8259 24.4948 29.3543 24.8909C28.8855 25.2846 28.1772 25.6617 27.258 25.9882C25.4243 26.6396 22.8582 27.0519 20 27.0519C17.1418 27.0519 14.5758 26.6396 12.742 25.9882C11.8228 25.6617 11.1145 25.2846 10.6457 24.8909C10.1741 24.4948 10.0002 24.1324 10.0002 23.8254ZM29.9952 25.6634L29.9998 25.6596V30.7671C29.9998 31.0741 29.8259 31.4365 29.3543 31.8326C28.8855 32.2263 28.1772 32.6035 27.258 32.93C25.4243 33.5813 22.8582 33.9937 20 33.9937C17.1418 33.9937 14.5758 33.5813 12.742 32.93C11.8228 32.6035 11.1145 32.2263 10.6457 31.8326C10.1741 31.4365 10.0002 31.0741 10.0002 30.7671V25.6596L10.0048 25.6634C10.5986 26.1622 11.428 26.5887 12.409 26.9372C14.3754 27.6357 17.0593 28.0583 20 28.0583C22.9408 28.0583 25.6246 27.6357 27.591 26.9372C28.572 26.5887 29.4014 26.1622 29.9952 25.6634ZM12.518 22.4635C12.518 22.8093 12.2394 23.0896 11.8957 23.0896C11.5521 23.0896 11.2735 22.8093 11.2735 22.4635C11.2735 22.1178 11.5521 21.8375 11.8957 21.8375C12.2394 21.8375 12.518 22.1178 12.518 22.4635ZM12.518 29.381C12.518 29.7268 12.2394 30.0071 11.8957 30.0071C11.5521 30.0071 11.2735 29.7268 11.2735 29.381C11.2735 29.0353 11.5521 28.755 11.8957 28.755C12.2394 28.755 12.518 29.0353 12.518 29.381Z" fill="white"/>
</svg>
